img/company.svg

<svg width="40" height="52" viewBox="0 0 40 52" fill="none" xmlns="http://www.w3.org/2000/svg">
<path d="M16.9769 2.93452H17.1135C17.3665 2.93452 17.6397 2.95995 17.9104 2.98284C19.103 3.06695 20.2873 3.24551 21.452 3.51685V0.653528C20.2527 0.352628 19.0296 0.157776 17.7965 0.0712015C17.3285 0.0356008 16.8302 0.0127146 16.3192 0H15.8917C13.4168 0.00930695 10.9526 0.327052 8.55545 0.945963C5.82521 1.62687 3.20457 2.69275 0.771484 4.11189V32.5086C3.11421 31.2357 5.60704 30.2643 8.19117 29.6173C10.2315 29.0967 12.3174 28.7765 14.4193 28.6612H14.5028C14.8545 28.6434 15.2061 28.6332 15.5678 28.6306V25.7216C12.8366 25.7567 10.1192 26.1178 7.47273 26.7972C6.49372 27.0515 5.54761 27.3261 4.65967 27.6313L3.64778 27.9746V5.83344L4.08036 5.62492C7.38159 4.05951 10.9521 3.14863 14.5964 2.94215C14.6267 2.93994 14.6572 2.93994 14.6875 2.94215C15.0897 2.92181 15.4945 2.91163 15.8917 2.91163H16.3268H16.347C16.557 2.91672 16.7669 2.92181 16.9769 2.93452Z" fill="#AFB1B8"/>
<path d="M24.111 5.93259C23.4457 5.93259 22.788 5.9097 22.153 5.86138C21.3941 5.80544 20.6149 5.7139 19.8763 5.58929C19.426 5.51301 18.9833 5.42146 18.5532 5.32229V33.3935C20.3739 33.8443 22.2435 34.0647 24.1186 34.0496C26.5933 34.0395 29.0573 33.7227 31.4548 33.1061C34.1856 32.4243 36.8069 31.3585 39.2413 29.9402V2.04956C36.8989 3.32178 34.4071 4.29396 31.8242 4.94339C29.3034 5.59083 26.7128 5.92307 24.111 5.93259ZM35.3354 6.41828L36.3473 6.07753V28.2263L35.9147 28.4348C34.2554 29.2243 32.5226 29.8469 30.7414 30.2937C28.5784 30.8533 26.3547 31.1412 24.1211 31.1506C23.4533 31.1506 22.7905 31.1227 22.148 31.0667L21.4548 31.0057V28.3178V8.22883L22.2618 8.28224C22.8487 8.32038 23.4558 8.33818 24.1161 8.33818C26.9517 8.3281 29.7751 7.96596 32.5224 7.25998C33.4659 7.01078 34.4045 6.73106 35.3354 6.41828Z" fill="#AFB1B8"/>
<path d="M2.73726 42.2124C2.59178 42.0615 2.41641 41.943 2.22248 41.8646C2.02856 41.7862 1.82042 41.7496 1.61153 41.7572C1.38892 41.7542 1.16793 41.7957 0.961389 41.8793C0.772023 41.9547 0.599889 42.068 0.455444 42.2124C0.312573 42.3572 0.201414 42.5304 0.12911 42.721C0.0498013 42.9207 0.0102645 43.1341 0.0127426 43.3491V47.1431C0.0036949 47.4104 0.0547102 47.6764 0.161996 47.9212C0.251555 48.1156 0.380847 48.2889 0.541455 48.4298C0.693075 48.5575 0.8711 48.6495 1.06258 48.6994C1.24706 48.7512 1.43768 48.7777 1.62924 48.7782C1.84053 48.7803 2.04965 48.7351 2.24143 48.646C2.43107 48.563 2.60289 48.4438 2.74737 48.295C2.88826 48.1476 3.00064 47.9752 3.07877 47.7864C3.15985 47.5951 3.20117 47.3892 3.2002 47.1812V46.7566H2.20854V47.0948C2.21149 47.2103 2.19172 47.3252 2.15036 47.433C2.11807 47.5137 2.06889 47.5866 2.00617 47.6466C1.94474 47.6962 1.87428 47.7334 1.79873 47.7559C1.73176 47.7782 1.66182 47.7902 1.59129 47.7915C1.50275 47.8018 1.41308 47.7885 1.33134 47.7527C1.24961 47.717 1.17871 47.6602 1.12582 47.5881C1.03234 47.4356 0.986517 47.2585 0.994276 47.0795V43.5423C0.988124 43.3462 1.02981 43.1515 1.1157 42.9753C1.16718 42.8952 1.24002 42.8313 1.3259 42.7908C1.41178 42.7503 1.50725 42.7349 1.60141 42.7464C1.68689 42.7434 1.77182 42.7612 1.84893 42.7984C1.92603 42.8356 1.99301 42.8911 2.04411 42.96C2.15508 43.1057 2.2131 43.2852 2.20854 43.4686V43.7966H3.19008V43.4101C3.19207 43.1831 3.15085 42.9578 3.06865 42.7464C2.99539 42.5476 2.88264 42.3659 2.73726 42.2124Z" fill="#AFB1B8"/>
<path d="M8.62867 42.1692C8.31247 41.9022 7.91337 41.7547 7.50042 41.7521C7.29843 41.753 7.09813 41.7891 6.90846 41.8589C6.71589 41.928 6.53816 42.0333 6.38481 42.1692C6.22052 42.3169 6.08943 42.498 6.00029 42.7006C5.90039 42.9324 5.85121 43.183 5.8561 43.4355V47.0744C5.84926 47.3304 5.89848 47.5848 6.00029 47.8195C6.09003 48.0152 6.22127 48.1888 6.38481 48.3281C6.53641 48.4689 6.71444 48.5778 6.90846 48.6485C7.09813 48.7183 7.29843 48.7545 7.50042 48.7553C7.70244 48.7549 7.90282 48.7188 8.09237 48.6485C8.28971 48.5768 8.4717 48.4681 8.62867 48.3281C8.78685 48.1862 8.9143 48.0131 9.00307 47.8195C9.10488 47.5848 9.15411 47.3304 9.14727 47.0744V43.4355C9.15215 43.183 9.10297 42.9324 9.00307 42.7006C8.91481 42.5001 8.78751 42.3194 8.62867 42.1692ZM8.16573 47.0744C8.17409 47.1714 8.1607 47.2691 8.12655 47.3602C8.09241 47.4513 8.03837 47.5335 7.96842 47.6008C7.83743 47.7107 7.67226 47.7708 7.50168 47.7708C7.3311 47.7708 7.16593 47.7107 7.03495 47.6008C6.965 47.5335 6.91096 47.4513 6.87681 47.3602C6.84266 47.2691 6.82927 47.1714 6.83763 47.0744V43.4355C6.82927 43.3386 6.84266 43.2409 6.87681 43.1498C6.91096 43.0587 6.965 42.9765 7.03495 42.9092C7.16593 42.7993 7.3311 42.7391 7.50168 42.7391C7.67226 42.7391 7.83743 42.7993 7.96842 42.9092C8.03837 42.9765 8.09241 43.0587 8.12655 43.1498C8.1607 43.2409 8.17409 43.3386 8.16573 43.4355V47.0744Z" fill="#AFB1B8"/>
<path d="M16.3675 48.6994V41.8106H15.4138L14.1616 45.4571H14.1439L12.8816 41.8106H11.938V48.6994H12.9221V44.5086H12.9398L13.9036 47.4711H14.3944L15.3658 44.5086H15.3835V48.6994H16.3675Z" fill="#AFB1B8"/>
<path d="M21.9582 42.2937C21.8067 42.1237 21.6154 41.9943 21.4016 41.9173C21.1713 41.8424 20.9303 41.8063 20.6883 41.8105H19.2261V48.6993H20.2076V46.0089H20.7136C21.0198 46.0228 21.3245 45.958 21.599 45.8207C21.8221 45.6968 22.0082 45.515 22.1378 45.2943C22.2513 45.1111 22.3278 44.9071 22.3629 44.6942C22.4016 44.435 22.4193 44.173 22.4161 43.911C22.4256 43.5802 22.3933 43.2495 22.3199 42.9269C22.2545 42.6885 22.13 42.4706 21.9582 42.2937ZM21.4522 44.3941C21.448 44.5188 21.4169 44.6412 21.3612 44.7527C21.3051 44.8586 21.2163 44.9434 21.1082 44.9942C20.9628 45.0593 20.8042 45.0889 20.6453 45.0807H20.1975V42.7387H20.7034C20.8558 42.7312 21.0077 42.7609 21.1461 42.8251C21.2476 42.8834 21.3282 42.9724 21.3763 43.0794C21.43 43.2004 21.4592 43.331 21.4624 43.4634C21.4624 43.6084 21.4624 43.7609 21.4624 43.9211C21.4624 44.0813 21.4725 44.2466 21.4624 44.3941H21.4522Z" fill="#AFB1B8"/>
<path d="M26.6074 41.8106H25.803L24.2852 48.6994H25.2667L25.5551 47.2194H26.8933L27.1817 48.6994H28.1632L26.6074 41.8106ZM25.7018 46.281L26.185 43.7839H26.2027L26.6833 46.281H25.7018Z" fill="#AFB1B8"/>
<path d="M32.9496 45.9606H32.9319L31.4494 41.8106H30.5059V48.6994H31.4874V44.557H31.5076L33.0078 48.6994H33.9311V41.8106H32.9496V45.9606Z" fill="#AFB1B8"/>
<path d="M38.9476 41.8106L38.1583 44.5493H38.1381L37.3488 41.8106H36.3091L37.6574 45.7877V48.6994H38.639V45.7877L39.9873 41.8106H38.9476Z" fill="#AFB1B8"/>
<path d="M0 50.6445H0.473058V51.9719H0.794333V50.6445H1.26486V50.3724H0V50.6445Z" fill="#AFB1B8"/>
<path d="M3.97672 50.3724L3.35693 51.9719H3.69845L3.82999 51.6083H4.46748L4.60409 51.9719H4.95319L4.31823 50.3724H3.97672ZM3.92612 51.3387L4.14368 50.7462L4.36123 51.3387H3.92612Z" fill="#AFB1B8"/>
<path d="M7.90793 51.3821H8.27727V51.5881C8.16941 51.6746 8.03576 51.722 7.89781 51.7229C7.8333 51.7265 7.76886 51.7145 7.70988 51.688C7.65091 51.6614 7.59911 51.6211 7.55883 51.5703C7.47402 51.4485 7.43217 51.3017 7.43993 51.1533C7.43993 50.7973 7.59424 50.6193 7.90034 50.6193C7.98091 50.6112 8.06168 50.6325 8.12804 50.6791C8.19439 50.7257 8.24194 50.7947 8.26209 50.8735L8.57831 50.8125C8.51001 50.4997 8.28486 50.3421 7.90034 50.3421C7.69468 50.3366 7.4947 50.4103 7.34127 50.5481C7.26069 50.6276 7.19834 50.7239 7.15858 50.8302C7.11882 50.9365 7.10261 51.0502 7.11107 51.1634C7.10175 51.3823 7.17493 51.5966 7.31598 51.7636C7.39434 51.8444 7.4892 51.9071 7.59401 51.9475C7.69883 51.9879 7.8111 52.0049 7.92311 51.9975C8.17338 52.0045 8.41652 51.9133 8.60108 51.7432V51.1126H7.90793V51.3821Z" fill="#AFB1B8"/>
<path d="M11.9224 50.3724H11.5986V51.9719H12.7193V51.6998H11.9224V50.3724Z" fill="#AFB1B8"/>
<path d="M15.3175 50.3724H14.9937V51.9719H15.3175V50.3724Z" fill="#AFB1B8"/>
<path d="M18.6364 51.4405L17.9812 50.3724H17.6675V51.9719H17.9685V50.9268L18.6111 51.9719H18.9323V50.3724H18.6364V51.4405Z" fill="#AFB1B8"/>
<path d="M21.6368 51.2675H22.4337V50.9954H21.6368V50.6445H22.4944V50.3724H21.313V51.9719H22.5273V51.6998H21.6368V51.2675Z" fill="#AFB1B8"/>
<path d="M28.9121 51.0031H28.2822V50.3724H27.9609V51.9719H28.2822V51.2726H28.9121V51.9719H29.2334V50.3724H28.9121V51.0031Z" fill="#AFB1B8"/>
<path d="M31.9302 51.2675H32.7296V50.9954H31.9302V50.6445H32.7903V50.3724H31.6089V51.9719H32.8206V51.6998H31.9302V51.2675Z" fill="#AFB1B8"/>
<path d="M36.0235 51.2677C36.3018 51.2244 36.4434 51.0769 36.4434 50.8227C36.4515 50.7546 36.4412 50.6857 36.4136 50.623C36.386 50.5604 36.3421 50.5064 36.2866 50.4667C36.1417 50.3939 35.9801 50.3614 35.8186 50.3726H35.1406V51.9721H35.4619V51.3033H35.5251C35.5936 51.299 35.6621 51.3112 35.725 51.3389C35.772 51.3678 35.8111 51.408 35.8388 51.4558L36.1879 51.9644H36.5724L36.3777 51.6516C36.2916 51.4972 36.1702 51.3656 36.0235 51.2677ZM35.6997 51.0464H35.4619V50.6447H35.7149C35.8251 50.6357 35.936 50.6487 36.0412 50.6828C36.0646 50.7035 36.0831 50.7291 36.0952 50.7579C36.1074 50.7868 36.113 50.818 36.1115 50.8492C36.11 50.8805 36.1016 50.911 36.0868 50.9386C36.072 50.9661 36.0512 50.9899 36.026 51.0083C35.9204 51.0407 35.8099 51.0536 35.6997 51.0464Z" fill="#AFB1B8"/>
<path d="M39.1094 51.2675H39.9063V50.9954H39.1094V50.6445H39.9696V50.3724H38.7856V51.9719H39.9999V51.6998H39.1094V51.2675Z" fill="#AFB1B8"/>
</svg>

<svg width="40" height="52" fill="none" xmlns="http://www.w3.org/2000/svg"><path d="M16.977 2.935h.136c.253 0 .527.025.797.048 1.193.084 2.377.263 3.542.534V.654A21.09 21.09 0 0 0 17.797.07 29.24 29.24 0 0 0 16.319 0h-.427c-2.475.01-4.94.327-7.337.946-2.73.68-5.35 1.747-7.784 3.166v28.397a31.634 31.634 0 0 1 7.42-2.892 32.36 32.36 0 0 1 6.228-.956h.084c.351-.018.703-.028 1.065-.03v-2.91a34.328 34.328 0 0 0-8.095 1.076c-.98.255-1.925.53-2.813.834l-1.012.344V5.833l.432-.208a28.275 28.275 0 0 1 10.516-2.683.627.627 0 0 1 .091 0c.403-.02.808-.03 1.205-.03h.455c.21.005.42.01.63.023z" fill="#AFB1B8"/><path d="M24.111 5.933a25.915 25.915 0 0 1-4.235-.344c-.45-.076-.893-.168-1.323-.267v28.072c1.82.45 3.69.67 5.566.656a29.943 29.943 0 0 0 7.336-.944 29.814 29.814 0 0 0 7.786-3.166V2.05a31.774 31.774 0 0 1-7.417 2.893c-2.52.648-5.111.98-7.713.99zm11.224.485l1.012-.34v22.148l-.432.209a27.761 27.761 0 0 1-5.174 1.859c-2.163.56-4.386.847-6.62.857-.668 0-1.33-.028-1.973-.084l-.693-.061V8.228l.807.054c.587.038 1.194.056 1.854.056a34.263 34.263 0 0 0 8.406-1.078 44.55 44.55 0 0 0 2.813-.842zM2.737 42.212a1.492 1.492 0 0 0-1.125-.455 1.673 1.673 0 0 0-.65.122 1.463 1.463 0 0 0-.832.842c-.08.2-.12.413-.117.628v3.794c-.01.267.042.533.149.778.09.195.219.368.38.509.151.127.33.22.52.27.185.051.376.078.567.078.212.002.42-.043.612-.132a1.599 1.599 0 0 0 .96-1.465v-.424h-.992v.338a.881.881 0 0 1-.059.338.608.608 0 0 1-.144.214.697.697 0 0 1-.415.145.503.503 0 0 1-.465-.204.899.899 0 0 1-.132-.508v-3.538c-.006-.196.036-.39.122-.567a.507.507 0 0 1 .485-.229.527.527 0 0 1 .443.214.806.806 0 0 1 .165.509v.328h.981v-.387a1.788 1.788 0 0 0-.121-.664 1.562 1.562 0 0 0-.332-.534zM8.629 42.17a1.766 1.766 0 0 0-1.129-.418c-.202.001-.402.037-.592.107A1.558 1.558 0 0 0 6 42.7c-.1.231-.149.482-.144.735v3.638c-.007.256.042.51.144.745.09.196.221.37.385.51.151.14.33.249.523.32a1.712 1.712 0 0 0 1.72-.32c.159-.143.286-.316.375-.51.102-.234.151-.489.144-.745v-3.639a1.77 1.77 0 0 0-.144-.734 1.641 1.641 0 0 0-.374-.532zm-.463 4.904a.654.654 0 0 1-.198.527.726.726 0 0 1-.933 0 .65.65 0 0 1-.197-.527v-3.639a.654.654 0 0 1 .197-.526.726.726 0 0 1 .933 0 .65.65 0 0 1 .198.526v3.64zM16.367 48.7v-6.89h-.953l-1.252 3.647h-.018l-1.262-3.646h-.944v6.888h.984v-4.19h.018l.964 2.962h.49l.972-2.962h.018v4.19h.983zM21.958 42.294c-.151-.17-.343-.3-.556-.377a2.184 2.184 0 0 0-.714-.107h-1.462v6.89h.982v-2.691h.506c.306.014.61-.051.885-.188a1.43 1.43 0 0 0 .539-.527c.113-.183.19-.387.225-.6a4.9 4.9 0 0 0 .053-.783c.01-.33-.023-.662-.096-.984a1.465 1.465 0 0 0-.362-.633zm-.506 2.1a.868.868 0 0 1-.09.359.552.552 0 0 1-.254.241 1.006 1.006 0 0 1-.463.087h-.447v-2.342h.505a.942.942 0 0 1 .443.086.556.556 0 0 1 .23.254c.054.121.083.252.086.384v.458c0 .16.01.326 0 .473h-.01zM26.607 41.81h-.804l-1.518 6.89h.982l.288-1.48h1.338l.289 1.48h.981l-1.556-6.89zm-.905 4.471l.483-2.497h.018l.48 2.497h-.981zM32.95 45.96h-.018l-1.483-4.15h-.943v6.89h.981v-4.143h.02l1.5 4.142h.924v-6.888h-.981v4.15zM38.948 41.81l-.79 2.74h-.02l-.79-2.74H36.31l1.348 3.978v2.911h.982v-2.911l1.348-3.977h-1.04zM0 50.645h.473v1.327h.321v-1.328h.47v-.272H0v.273zM3.977 50.372l-.62 1.6h.341l.132-.364h.637l.137.364h.35l-.636-1.6h-.341zm-.05.967l.217-.593.217.593h-.435zM7.908 51.382h.37v.206a.613.613 0 0 1-.38.135.404.404 0 0 1-.34-.153.669.669 0 0 1-.118-.417c0-.356.154-.534.46-.534a.337.337 0 0 1 .362.255l.316-.062c-.068-.312-.293-.47-.678-.47a.804.804 0 0 0-.559.206.78.78 0 0 0-.23.615.873.873 0 0 0 .205.6.776.776 0 0 0 .607.235.96.96 0 0 0 .678-.255v-.63h-.693v.27zM11.922 50.372H11.6v1.6h1.12V51.7h-.797v-1.328zM15.318 50.372h-.324v1.6h.324v-1.6zM18.636 51.44l-.655-1.068h-.314v1.6h.301v-1.045l.643 1.045h.321v-1.6h-.296v1.069zM21.637 51.267h.797v-.272h-.797v-.35h.857v-.273h-1.181v1.6h1.214V51.7h-.89v-.433zM28.912 51.003h-.63v-.63h-.321v1.599h.321v-.7h.63v.7h.321v-1.6h-.32v.631zM31.93 51.267h.8v-.272h-.8v-.35h.86v-.273H31.61v1.6h1.212V51.7h-.89v-.433zM36.023 51.268c.279-.044.42-.191.42-.445a.383.383 0 0 0-.156-.356.903.903 0 0 0-.468-.094h-.678v1.6h.32v-.67h.064a.43.43 0 0 1 .2.036c.047.029.086.069.114.117l.349.508h.384l-.194-.312a1.113 1.113 0 0 0-.355-.384zm-.323-.222h-.238v-.401h.253a.837.837 0 0 1 .326.038.208.208 0 0 1 .046.256.209.209 0 0 1-.061.07.91.91 0 0 1-.326.037zM39.11 51.267h.796v-.272h-.797v-.35h.86v-.273h-1.183v1.6H40V51.7h-.89v-.433z" fill="#AFB1B8"/></svg>
